pix_core/i/siteevent.svg

<svg preserveAspectRatio="xMinYMid meet" viewBox="0 0 512 512" xmlns="http://www.w3.org/2000/svg"><path d="m352 256c0 22.2-1.2 43.6-3.3 64h-185.4c-2.2-20.4-3.3-41.8-3.3-64s1.2-43.6 3.3-64h185.4c2.2 20.4 3.3 41.8 3.3 64zm28.8-64h123.1c5.3 20.5 8.1 41.9 8.1 64s-2.8 43.5-8.1 64h-123.1c2.1-20.6 3.2-42 3.2-64s-1.1-43.4-3.2-64zm112.6-32h-116.7c-10-63.9-29.8-117.4-55.3-151.6 78.3 20.7 142 77.5 171.9 151.6zm-149.1 0h-176.6c6.1-36.4 15.5-68.6 27-94.7 10.5-23.6 22.2-40.7 33.5-51.5 11.2-10.6 20.5-13.8 27.8-13.8s16.6 3.2 27.8 13.8c11.3 10.8 23 27.9 33.5 51.5 11.6 26 20.9 58.2 27 94.7zm-209 0h-116.7c30-74.1 93.6-130.9 172-151.6-25.5 34.2-45.3 87.7-55.3 151.6zm-127.2 32h123.1c-2.1 20.6-3.2 42-3.2 64s1.1 43.4 3.2 64h-123.1c-5.3-20.5-8.1-41.9-8.1-64s2.8-43.5 8.1-64zm186.6 254.6c-11.6-26-20.9-58.2-27-94.6h176.6c-6.1 36.4-15.5 68.6-27 94.6-10.5 23.6-22.2 40.7-33.5 51.5-11.2 10.7-20.5 13.9-27.8 13.9s-16.6-3.2-27.8-13.8c-11.3-10.8-23-27.9-33.5-51.5zm-59.4-94.6c10 63.9 29.8 117.4 55.3 151.6-78.4-20.7-142-77.5-172-151.6zm358.1 0c-30 74.1-93.6 130.9-171.9 151.6 25.5-34.2 45.2-87.7 55.3-151.6z" fill="#fff"/></svg>

<svg xmlns="http://www.w3.org/2000/svg" viewBox="0 0 512 512" preserveAspectRatio="xMinYMid meet"><!--!Font Awesome Free 6.5.2 by @fontawesome - https://fontawesome.com License - https://fontawesome.com/license/free Copyright 2024 Fonticons, Inc.--><path fill="#fff" d="M352 256c0 22.2-1.2 43.6-3.3 64H163.3c-2.2-20.4-3.3-41.8-3.3-64s1.2-43.6 3.3-64H348.7c2.2 20.4 3.3 41.8 3.3 64zm28.8-64H503.9c5.3 20.5 8.1 41.9 8.1 64s-2.8 43.5-8.1 64H380.8c2.1-20.6 3.2-42 3.2-64s-1.1-43.4-3.2-64zm112.6-32H376.7c-10-63.9-29.8-117.4-55.3-151.6c78.3 20.7 142 77.5 171.9 151.6zm-149.1 0H167.7c6.1-36.4 15.5-68.6 27-94.7c10.5-23.6 22.2-40.7 33.5-51.5C239.4 3.2 248.7 0 256 0s16.6 3.2 27.8 13.8c11.3 10.8 23 27.9 33.5 51.5c11.6 26 20.9 58.2 27 94.7zm-209 0H18.6C48.6 85.9 112.2 29.1 190.6 8.4C165.1 42.6 145.3 96.1 135.3 160zM8.1 192H131.2c-2.1 20.6-3.2 42-3.2 64s1.1 43.4 3.2 64H8.1C2.8 299.5 0 278.1 0 256s2.8-43.5 8.1-64zM194.7 446.6c-11.6-26-20.9-58.2-27-94.6H344.3c-6.1 36.4-15.5 68.6-27 94.6c-10.5 23.6-22.2 40.7-33.5 51.5C272.6 508.8 263.3 512 256 512s-16.6-3.2-27.8-13.8c-11.3-10.8-23-27.9-33.5-51.5zM135.3 352c10 63.9 29.8 117.4 55.3 151.6C112.2 482.9 48.6 426.1 18.6 352H135.3zm358.1 0c-30 74.1-93.6 130.9-171.9 151.6c25.5-34.2 45.2-87.7 55.3-151.6H493.4z"/></svg>
